X: 41858
T: Virginia, The
R: reel
M: 4/4
K: Dmajor
|DBBA ~B3d|BAdB AFEF|D~F3 ~A2F/G/A|AFBF AFEF|
DBBA ~B3d|BAdB ABde|~f3e defe|dBAF B~E3|
DBBA ~B3d|BAdB AFEF|D~F3 A~F3|AFBF AFEF|
DBBA ~B3d|BAdB BABd|~f3e defe|dBAF B~E3|
defe d3A|BAFA dAFA|defe defg|afbf afef|
ffdf edBA|A~F3 AB de|~f3e defe|dBAF B~E3|

